src/packages/tokens/img/bch.svg

<svg width="24" height="24" viewBox="0 0 24 24" fill="none" xmlns="http://www.w3.org/2000/svg">
<g clip-path="url(#clip0_8_2944)">
<path d="M12 24C18.6274 24 24 18.6274 24 12C24 5.37258 18.6274 0 12 0C5.37258 0 0 5.37258 0 12C0 18.6274 5.37258 24 12 24Z" fill="#0AC18E"/>
<path d="M15.743 7.97058C15.1399 6.60307 13.7541 6.31068 12.0577 6.59393L11.5125 4.48022L10.2272 4.8122L10.7633 6.91982C10.4252 7.0051 10.078 7.07819 9.73385 7.17566L9.19781 5.08022L7.91253 5.4122L8.45771 7.52591C8.18055 7.6051 5.86279 8.19901 5.86279 8.19901L6.21609 9.57566C6.21609 9.57566 7.16025 9.31068 7.15111 9.332C7.67497 9.19495 7.92167 9.45687 8.03741 9.70358L9.53588 15.4965C9.55415 15.664 9.5237 15.9503 9.16431 16.0477C9.18563 16.0599 8.22928 16.2883 8.22928 16.2883L8.36938 17.8934C8.36938 17.8934 10.6658 17.3056 10.9673 17.2295L11.5186 19.3675L12.8039 19.0356L12.2526 16.8823C12.6059 16.8 12.9501 16.7147 13.2851 16.6264L13.8333 18.7675L15.1186 18.4356L14.5673 16.3005C16.547 15.8193 17.945 14.5706 17.6587 12.6609C17.476 11.5097 16.2181 10.5655 15.1734 10.4589C15.8161 9.88936 16.142 9.05789 15.743 7.97058ZM15.1247 13.0112C15.3805 14.9026 12.7521 15.134 11.8841 15.3625L11.1288 12.533C11.9998 12.3046 14.6922 11.3452 15.1247 13.0112ZM13.5409 9.1584C13.812 10.8396 11.5643 11.0345 10.8394 11.2203L10.1511 8.65281C10.879 8.47312 12.9897 7.60205 13.5409 9.1584Z" fill="white"/>
</g>
<defs>
<clipPath id="clip0_8_2944">
<rect width="24" height="24" fill="white"/>
</clipPath>
</defs>
</svg>

<svg xmlns="http://www.w3.org/2000/svg" width="24" height="24" fill="none" xmlns:v="https://vecta.io/nano"><g clip-path="url(#A)"><path d="M12 24c6.627 0 12-5.373 12-12S18.627 0 12 0 0 5.373 0 12s5.373 12 12 12z" fill="#0ac18e"/><path d="M15.743 7.971c-.603-1.368-1.989-1.66-3.685-1.377l-.545-2.114-1.285.332.536 2.108-1.029.256-.536-2.095-1.285.332.545 2.114-2.595.673.353 1.377.935-.244c.524-.137.771.125.886.372l1.498 5.793c.018.168-.012.454-.372.551.021.012-.935.241-.935.241l.14 1.605 2.598-.664.551 2.138 1.285-.332-.551-2.153 1.033-.256.548 2.141 1.285-.332-.551-2.135c1.98-.481 3.378-1.73 3.091-3.64-.183-1.151-1.441-2.095-2.485-2.202.643-.57.969-1.401.57-2.488zm-.618 5.041c.256 1.891-2.373 2.123-3.241 2.351l-.755-2.83c.871-.228 3.563-1.188 3.996.478zm-1.584-3.853c.271 1.681-1.977 1.876-2.702 2.062l-.688-2.567c.728-.18 2.839-1.051 3.39.506z" fill="#fff"/></g><defs><clipPath id="A"><path fill="#fff" d="M0 0h24v24H0z"/></clipPath></defs></svg>
